alpha-r-box.svg

<svg fill="currentColor" viewBox="0 0 24 24"><path d="M9 7v10h2v-4h.8l1.2 4h2l-1.24-4.15C14.5 12.55 15 11.84 15 11V9a2 2 0 0 0-2-2zm2 2h2v2h-2zM5 3h14a2 2 0 0 1 2 2v14a2 2 0 0 1-2 2H5a2 2 0 0 1-2-2V5a2 2 0 0 1 2-2"/></svg>

<svg  viewBox="0 0 24 24" fill="currentColor"><path  d="M9,7V17H11V13H11.8L13,17H15L13.76,12.85C14.5,12.55 15,11.84 15,11V9A2,2 0 0,0 13,7H9M11,9H13V11H11V9M5,3H19A2,2 0 0,1 21,5V19A2,2 0 0,1 19,21H5A2,2 0 0,1 3,19V5A2,2 0 0,1 5,3Z"/></svg>
